X:1
T:Bellaghy Fair
M:9/8
L:1/8
K:Eb
 A| GFE CEE CEE| GFE CEE F2 A| GFE CEEC-E E|G-F E CEC B,2 A/2A/2| GAB BcB BAG|\
 ABc cdc c2d/2-e/2| edc cBA G2 F/2E/2|F-E F GDC C2||
